X: 21174
T: Kathren Oggie
R: reel
M: 4/4
K: Gdorian
D2 G2 G2 FG|A2 G2 G3 A|c3 d cAGF|F4 A2 GF|
D2 G2 G2 FG|A2 F2 f3 e|d2 cd fdcA|G4 GABc||
defg fedc|Bcde f3 c|A2 f2 cAGF|F4 A2 GF|
B2 G2 G2 FG|A2 F2 fefg|agfd cdcA|G4 B4||

